svg/topology.svg

<?xml version="1.0" encoding="UTF-8"?>
<svg xmlns="http://www.w3.org/2000/svg" xmlns:xlink="http://www.w3.org/1999/xlink" width="32" height="32" viewBox="0 0 32 32">
<path fill-rule="nonzero" fill="rgb(0%, 0%, 0%)" fill-opacity="1" d="M 18.800781 11.222656 C 17.992188 10.621094 17.011719 10.296875 16.003906 10.296875 C 14.828125 10.292969 13.695312 10.734375 12.835938 11.535156 C 11.867188 12.417969 11.320312 13.664062 11.320312 14.972656 C 11.320312 15.671875 11.476562 16.335938 11.75 16.925781 C 12.550781 18.671875 14.335938 19.75 16.257812 19.648438 C 18.175781 19.542969 19.835938 18.277344 20.441406 16.453125 C 20.539062 16.152344 20.609375 15.84375 20.648438 15.53125 C 20.847656 13.867188 20.140625 12.226562 18.800781 11.222656 Z M 16.472656 25.953125 L 16.472656 20.574219 C 16.3125 20.59375 16.15625 20.597656 16.003906 20.597656 C 15.84375 20.597656 15.6875 20.59375 15.53125 20.574219 L 15.53125 25.953125 C 14.308594 26.179688 13.421875 27.242188 13.421875 28.484375 C 13.425781 29.90625 14.582031 31.058594 16.003906 31.058594 C 17.425781 31.054688 18.574219 29.902344 18.578125 28.484375 C 18.578125 27.222656 17.667969 26.175781 16.472656 25.953125 Z M 27.484375 14.15625 C 26.269531 14.15625 25.222656 15.003906 24.960938 16.1875 L 21.574219 15.671875 C 21.539062 15.984375 21.476562 16.296875 21.382812 16.597656 L 24.945312 17.140625 C 25.164062 18.492188 26.398438 19.4375 27.761719 19.289062 C 29.121094 19.144531 30.128906 17.960938 30.054688 16.59375 C 29.984375 15.226562 28.851562 14.15625 27.484375 14.15625 Z M 7.683594 7.914062 C 8.105469 7.914062 8.511719 7.8125 8.863281 7.628906 L 11.621094 11.453125 C 11.796875 11.230469 11.992188 11.027344 12.203125 10.835938 C 12.234375 10.8125 12.257812 10.789062 12.285156 10.765625 L 9.601562 7.050781 C 10.011719 6.597656 10.257812 5.996094 10.257812 5.335938 C 10.253906 3.914062 9.105469 2.761719 7.683594 2.761719 C 6.289062 2.800781 5.179688 3.941406 5.179688 5.335938 C 5.179688 6.730469 6.289062 7.875 7.683594 7.914062 Z M 19.335938 10.445312 L 22.417969 5.929688 C 22.699219 6.035156 22.996094 6.089844 23.292969 6.089844 C 24.714844 6.089844 25.871094 4.9375 25.871094 3.515625 C 25.832031 2.121094 24.691406 1.011719 23.292969 1.011719 C 21.898438 1.011719 20.757812 2.121094 20.71875 3.515625 C 20.71875 4.285156 21.0625 4.980469 21.601562 5.449219 L 18.523438 9.953125 C 18.796875 10.089844 19.074219 10.253906 19.335938 10.445312 Z M 10.890625 17.324219 L 6.585938 19.308594 C 6.105469 18.644531 5.335938 18.253906 4.515625 18.253906 C 3.097656 18.257812 1.945312 19.410156 1.941406 20.828125 C 1.96875 22.230469 3.117188 23.355469 4.519531 23.355469 C 5.921875 23.355469 7.066406 22.230469 7.09375 20.828125 C 7.09375 20.59375 7.0625 20.371094 7 20.15625 L 11.359375 18.140625 C 11.183594 17.882812 11.027344 17.609375 10.890625 17.324219 Z M 10.890625 17.324219 "/>
</svg>

<svg role="img" viewBox="0 0 32 32" xmlns="http://www.w3.org/2000/svg"><path d="M18.8 11.223a4.7 4.7 0 0 0-2.796-.926 4.62 4.62 0 0 0-3.168 1.238 4.64 4.64 0 0 0-1.516 3.438c0 .699.157 1.363.43 1.953a4.677 4.677 0 0 0 8.898-1.395 4.69 4.69 0 0 0-1.847-4.308m-2.327 14.73v-5.379c-.16.02-.317.024-.47.024-.16 0-.316-.004-.472-.024v5.38a2.575 2.575 0 0 0-2.11 2.53 2.583 2.583 0 0 0 2.583 2.575 2.58 2.58 0 0 0 2.574-2.575c0-1.261-.91-2.308-2.105-2.53m11.011-11.797a2.59 2.59 0 0 0-2.523 2.031l-3.387-.515a5 5 0 0 1-.191.926l3.562.543a2.57 2.57 0 0 0 2.817 2.148 2.57 2.57 0 0 0 2.293-2.695 2.573 2.573 0 0 0-2.57-2.438m-19.8-6.242c.421 0 .828-.101 1.18-.285l2.757 3.824q.265-.332.582-.617c.031-.024.055-.047.082-.07L9.602 7.05c.41-.453.656-1.055.656-1.715a2.576 2.576 0 0 0-2.574-2.574A2.575 2.575 0 0 0 5.18 5.336a2.58 2.58 0 0 0 2.504 2.578m11.652 2.531 3.082-4.515c.281.105.578.16.875.16a2.577 2.577 0 0 0 2.578-2.574 2.576 2.576 0 0 0-2.578-2.504 2.575 2.575 0 0 0-2.574 2.504c0 .77.343 1.464.883 1.933l-3.079 4.504c.274.137.551.3.813.492m-8.445 6.88-4.305 1.984a2.55 2.55 0 0 0-2.07-1.055 2.584 2.584 0 0 0-2.575 2.574 2.577 2.577 0 0 0 5.152 0q0-.35-.093-.672l4.36-2.015a6 6 0 0 1-.47-.817m0 0" fill="rgb(0%, 0%, 0%)"/></svg>
